X:1
T:Title
%%score 1 2
L:1/8
M:3/4
K:Eb
V:1 treble nm="Choir Aahs, Unnamed-000"
V:2 treble nm="Choir Aahs, 02"
V:1
 [B,B][G,E] [CA] [B,G]3 | [CA][A,F]- [A,F]/[B,G]/[K:bass] [G,E]3 | %2
w: By~Grant~Colfax~Tullar,~circa~1903 * * *||
 [G,E][F,D][K:treble] [G,E] [A,F]3 | [DB][DB]- [DB]/[CA]/ [B,G]3 | [B,G][G,E] [CA] [B,G]3 | %5
w: |||
 [CA][A,F]- [A,F]/[B,G]/ [G,E]3- | [G,E] [EG]2 [DF] [DF][DF] | [Fd][Fd]- [Fd]/[Ec]/ [DB]3 | %8
w: |||
 [DB][DB] [Ec] [DB]3 | [CA][CA]- [CA]/[=B,E]/ [_B,G]3- | [B,G] [EG]2 [Ec]3 | %11
w: |||
 [CE][=B,E]- [B,E]/[B,E]/ [_B,G]3 | [B,G][A,F] [G,E] [B,G]3 | [EG][_DA] [DB] [Cc]3- | %14
w: |||
 [Cc] [B,e]2 [B,B]3 | [B,G][B,G]- [B,G]/[A,A]/ [G,E]3 |] %16
w: ||
V:2
 [Bg][Ge] [ca] [Bg]3 | [ca][Af]- [Af]/[Bg]/ [Ge]3 | [Ge][Fd] [Ge] [Af]3 | %3
 [db][db]- [db]/[ca]/ [Bg]3 | [Bg][Ge] [ca] [Bg]3 | [ca][Af]- [Af]/[Bg]/ [Ge]3- | %6
 [Ge] [Geg]2 [Fdf] [Fdf][Fdf] | [dfd'][dfd']- [dfd']/[cec']/ [Bdfb]3 | [db][db] [ec'] [db]3 | %9
 [ca][ca]- [ca]/[=Be]/ [_Bg]3- | [Bg] [Bg]2 [ec']3 | [ce][=Bf]- [Bf]/[Be]/ [_Bg]3 | %12
 [Bg][Af] [Ge] [Bg]3 | [eg][da] [_db] [cc']3- | [cc'] [Ee]2 [EB]3 | [EG][DG]- [DG]/[DF]/ [B,E]3 |] %16

